icons/svg/subway/subway_brussels.svg

<?xml version="1.0" encoding="UTF-8" standalone="no"?>
<svg
   xmlns:dc="http://purl.org/dc/elements/1.1/"
   xmlns:cc="http://creativecommons.org/ns#"
   xmlns:rdf="http://www.w3.org/1999/02/22-rdf-syntax-ns#"
   xmlns:svg="http://www.w3.org/2000/svg"
   xmlns="http://www.w3.org/2000/svg"
   xmlns:sodipodi="http://sodipodi.sourceforge.net/DTD/sodipodi-0.dtd"
   xmlns:inkscape="http://www.inkscape.org/namespaces/inkscape"
   width="16"
   height="16"
   id="svg2"
   version="1.1"
   inkscape:version="0.91 r"
   sodipodi:docname="subway_brussels.svg">
  <defs
     id="defs13">
    <linearGradient
       gradientTransform="matrix(0.08596979,0,0,0.08596979,0.67480439,1.9432845)"
       x1="87.101639"
       y1="121.69753"
       x2="87.260849"
       y2="1.2385538"
       id="l1"
       gradientUnits="userSpaceOnUse">
      <stop
         style="stop-color:#e92203;stop-opacity:1"
         offset="0"
         id="stop5" />
      <stop
         style="stop-color:#ff0000;stop-opacity:0.64628822"
         offset="1"
         id="stop7" />
    </linearGradient>
    <linearGradient
       gradientTransform="matrix(0.08400469,0,0,0.08400469,0.8422306,2.0814238)"
       x1="87.101639"
       y1="121.69753"
       x2="87.260849"
       y2="1.2385538"
       id="l1-2"
       gradientUnits="userSpaceOnUse">
      <stop
         style="stop-color:#e92203;stop-opacity:1"
         offset="0"
         id="stop5-8" />
      <stop
         style="stop-color:#ff0000;stop-opacity:0.64628822"
         offset="1"
         id="stop7-4" />
    </linearGradient>
  </defs>
  <sodipodi:namedview
     pagecolor="#ffffff"
     bordercolor="#666666"
     borderopacity="1"
     objecttolerance="10"
     gridtolerance="10"
     guidetolerance="10"
     inkscape:pageopacity="0"
     inkscape:pageshadow="2"
     inkscape:window-width="1332"
     inkscape:window-height="739"
     id="namedview11"
     showgrid="true"
     inkscape:zoom="22.627417"
     inkscape:cx="5.8254793"
     inkscape:cy="7.4517716"
     inkscape:window-x="34"
     inkscape:window-y="1024"
     inkscape:window-maximized="1"
     inkscape:current-layer="svg2"
     showguides="false"
     inkscape:snap-global="false">
    <sodipodi:guide
       position="0,0"
       orientation="0,580"
       id="guide2989" />
    <sodipodi:guide
       position="580,0"
       orientation="-580,0"
       id="guide2991" />
    <sodipodi:guide
       position="580,580"
       orientation="0,-580"
       id="guide2993" />
    <sodipodi:guide
       position="0,580"
       orientation="580,0"
       id="guide2995" />
    <sodipodi:guide
       position="0,0"
       orientation="0,580"
       id="guide2997" />
    <sodipodi:guide
       position="580,0"
       orientation="-580,0"
       id="guide2999" />
    <sodipodi:guide
       position="580,580"
       orientation="0,-580"
       id="guide3001" />
    <sodipodi:guide
       position="0,580"
       orientation="580,0"
       id="guide3003" />
    <inkscape:grid
       type="xygrid"
       id="grid3013"
       empspacing="5"
       visible="true"
       enabled="true"
       snapvisiblegridlinesonly="true" />
  </sodipodi:namedview>
  <metadata
     id="metadata2975">image/svg+xmlen<rdf:RDF>
  <cc:Work
     rdf:about="">
    <dc:format>image/svg+xml</dc:format>
    <dc:type
       rdf:resource="http://purl.org/dc/dcmitype/StillImage" />
    <dc:title />
  </cc:Work>
</rdf:RDF>
</metadata>
  <path
     sodipodi:type="inkscape:offset"
     inkscape:radius="0.56250006"
     inkscape:original="M 3.3710938 4.4726562 C 2.9184271 4.4726562 2.546875 4.8368314 2.546875 5.2871094 L 2.546875 10.708984 C 2.546875 11.159262 2.918427 11.527344 3.3710938 11.527344 L 12.626953 11.527344 C 13.082008 11.527344 13.451172 11.159262 13.451172 10.708984 L 13.451172 5.2871094 C 13.450286 4.8375804 13.081463 4.4726562 12.626953 4.4726562 L 3.3710938 4.4726562 z "
     style="opacity:0.54355403;fill:#fefefe;fill-opacity:1"
     id="path4200"
     d="m 3.3710938,3.9101562 c -0.7543583,0 -1.3867188,0.6172396 -1.3867188,1.3769532 l 0,5.4218746 c 0,0.759714 0.629124,1.38086 1.3867188,1.38086 l 9.2558592,0 c 0.758383,0 1.386719,-0.623135 1.386719,-1.38086 l 0,-5.4218746 a 0.56255631,0.56255631 0 0 0 0,-0.00195 c -0.0015,-0.7566017 -0.631123,-1.375 -1.386719,-1.375 l -9.2558592,0 z" />
  <path
     style="fill:#0b7cc1"
     d="m 13.452304,5.2869858 c 0,-0.450278 -0.370255,-0.8133668 -0.82531,-0.8133668 l -9.2563769,0 c -0.4526667,0 -0.8229218,0.3630888 -0.8229218,0.8133668 l 0,5.4224452 c 0,0.450278 0.3702551,0.81695 0.8229218,0.81695 l 9.2563769,0 c 0.455055,0 0.824116,-0.366672 0.824116,-0.81695 l 0,-5.4224452"
     id="path2211"
     inkscape:connector-curvature="0" />
  <path
     style="fill:#fefefe;fill-opacity:1"
     d="m 9.1286806,5.0564721 3.4875644,0 c 0.13138,0 0.250817,0.1110766 0.250817,0.2460405 l 0,4.8527304 c 0,0.136158 -0.119437,0.247235 -0.250817,0.247235 l -3.3442398,0 0,-5.0653286 c 0,-0.1182428 -0.09555,-0.2806773 -0.1433246,-0.2806773"
     id="path2213"
     inkscape:connector-curvature="0" />
  <path
     style="fill:#fefefe;fill-opacity:1"
     d="m 4.7931132,7.3843016 0,3.0193704 -1.3974143,0 c -0.1313809,0 -0.250818,-0.112271 -0.250818,-0.247235 l 0,-4.7762903 c 0,-0.1337695 0.09555,-0.2555954 0.2257362,-0.2555954 0.09555,0 0.1791556,0.047775 0.2161811,0.1134653 l 1.206315,2.146285"
     id="path2215"
     inkscape:connector-curvature="0" />
  <path
     style="fill:#fefefe;fill-opacity:1"
     d="m 7.8029286,9.0946412 -1.3854706,0 c -0.263956,0 -0.4550554,-0.050164 -0.6091293,-0.3093422 L 3.7778976,5.1615768 c -0.011944,-0.03822 -0.047775,-0.081217 -0.09555,-0.1074934 l 1.3615832,0 c 0.2627617,0 0.4538611,0.050164 0.6091293,0.3093421 l 1.9826562,3.5580318 c 0.059719,0.1158541 0.1182428,0.1731839 0.167212,0.1731839"
     id="path2217"
     inkscape:connector-curvature="0" />
  <path
     style="fill:#fefefe;fill-opacity:1"
     d="M 7.205743,7.6996156 7.826816,8.804409 c 0.083606,0.1540739 0.2866491,0.3917537 0.4896922,0.025082 l 0.7643976,-1.3532226 0,-1.9468251 c 0,-0.5231345 -0.4060862,-0.4681935 -0.6091293,-0.1015215 L 7.205743,7.6996156"
     id="path2219"
     inkscape:connector-curvature="0" />
</svg>

<svg width="16" height="16" viewBox="0 0 16 16" fill="none" xmlns="http://www.w3.org/2000/svg">
<path opacity="0.543554" d="M3.37109 3.91016C2.61674 3.91016 1.98438 4.5274 1.98438 5.28711V10.709C1.98438 11.4687 2.6135 12.0898 3.37109 12.0898H12.627C13.3853 12.0898 14.0137 11.4667 14.0137 10.709V5.28711C14.0137 5.28646 14.0137 5.28581 14.0137 5.28516C14.0122 4.52856 13.3825 3.91016 12.627 3.91016H3.37109V3.91016Z" fill="#FEFEFE"/>
<path d="M13.4523 5.287C13.4523 4.83672 13.082 4.47363 12.627 4.47363H3.37059C2.91792 4.47363 2.54767 4.83672 2.54767 5.287V10.7094C2.54767 11.1597 2.91792 11.5264 3.37059 11.5264H12.627C13.082 11.5264 13.4511 11.1597 13.4511 10.7094V5.287" fill="#0B7CC1"/>
<path d="M9.12866 5.05646H12.6162C12.7476 5.05646 12.867 5.16753 12.867 5.3025V10.1552C12.867 10.2914 12.7476 10.4025 12.6162 10.4025H9.27199V5.33713C9.27199 5.21889 9.17644 5.05646 9.12866 5.05646" fill="#FEFEFE"/>
<path d="M4.79313 7.38429V10.4037H3.39572C3.26433 10.4037 3.1449 10.2914 3.1449 10.1564V5.38014C3.1449 5.24637 3.24045 5.12454 3.37063 5.12454C3.46618 5.12454 3.54979 5.17232 3.58681 5.23801L4.79313 7.38429" fill="#FEFEFE"/>
<path d="M7.80295 9.09463H6.41748C6.15353 9.09463 5.96243 9.04447 5.80835 8.78529L3.77792 5.16157C3.76598 5.12335 3.73015 5.08035 3.68237 5.05408H5.04396C5.30672 5.05408 5.49782 5.10424 5.65309 5.36342L7.63574 8.92145C7.69546 9.03731 7.75398 9.09463 7.80295 9.09463" fill="#FEFEFE"/>
<path d="M7.20575 7.69962L7.82682 8.80441C7.91043 8.95848 8.11347 9.19616 8.31651 8.82949L9.08091 7.47627V5.52944C9.08091 5.00631 8.67483 5.06125 8.47178 5.42792L7.20575 7.69962Z" fill="#FEFEFE"/>
</svg>
